svg/motor_controller_outline.svg

<svg xmlns="http://www.w3.org/2000/svg" width="24" height="24" viewBox="0 0 24 24"><path d="M17.2 9.29h2.05V15h-1.41v-2.94c0-.16 0-.55.05-1.17L16.71 15h-1.47l-1.17-4.11c.05.7.08 1.24.08 1.63V15h-1.4V9.29h2.05l1.2 4.05zM23 12a7 7 0 0 1-13.93 1H7v1a2 2 0 0 1-2 2H3a2 2 0 0 1-2-2v-4a2 2 0 0 1 2-2h2a2 2 0 0 1 2 2v1h2.07A7 7 0 0 1 23 12zm-1.5 0a5.5 5.5 0 1 0-5.5 5.5 5.5 5.5 0 0 0 5.5-5.5z" fill-rule="evenodd"/><path fill="none" d="M0 0h24v24H0z"/></svg>

<svg xmlns="http://www.w3.org/2000/svg" width="24" height="24" viewBox="0 0 24 24"><path d="M17.2,9.29h2.05V15H17.84V12.06c0-.16,0-.55.05-1.17h0L16.71,15H15.24l-1.17-4.11h0c.05.7.08,1.24.08,1.63V15H12.75V9.29H14.8L16,13.34h0ZM23,12A7,7,0,0,1,9.07,13H7v1a2,2,0,0,1-2,2H3a2,2,0,0,1-2-2V10A2,2,0,0,1,3,8H5a2,2,0,0,1,2,2v1H9.07A7,7,0,0,1,23,12Zm-1.5,0A5.5,5.5,0,1,0,16,17.5,5.5,5.5,0,0,0,21.5,12Z" fill-rule="evenodd"/><rect width="24" height="24" fill="none"/></svg>
